X: 38288
T: St. Kilda's
R: waltz
M: 3/4
K: Gmajor
|:D2|GA B2 AG|FG A2 GF|EF GF EC|B,C D2D2|
GA B2 AG|FG A2 GF|EG DG GF|G4:|
|:G2|cd e2 dc|Bc d4|Bd gd BG|FG A2 AB|
cd e2 dc|Bd g2 d2|Bd cB AF|G4:|

